!! "Kwajong's Lament II", (art song) No. 119b from Jonathan Condit,
!! 'Music of the Korean Renaissance; Songs and dances of the fifteenth century',
!! London: Cambridge University Press, 1984, ISBN 0 521 24399 8; pp.295-300
!! pluck	wind	voice
!! str.
**kern	**kern	**kern
*M36/16	*M36/16	*M36/16
=1	=1	=1
8.r	8.r	8.r
4.B-	4.b-	8.b-
.	.	{8cc
.	.	[16b-
4.F	[8.b-	4.b-}]
.	4.b-_	.
8.B-	.	[8.b-
8.B-	8.b-]	4.b-_
4.B-	{8.b-	.
.	8b-	8.b-_
.	16ff'}	.
4.B-	4.r	4.b-_
8.B-	8.r	8.b-_
=2	=2	=2
8.B-	8.r	8.b-]
8.c	{8.cc	8.cc
8.e-	8.ee-}	{8.ee-
4.c	[4.ee-	4.cc
8.e-	8.ee-]	8.ee-}
8.c	{16cc	4.cc
.	8ee-	.
4.c	8.cc	.
.	[8.b-	[8.b-
4.c	4.b-_	4.b-]
8.B-	8.b-_	[8.b-
=3	=3	=3
8.B-	8.b-}]	8.b-]
8.B-	{8.cc	8.cc
8c	[8.b-	{8.b-
16B-	.	.
4.G	4.b-]	8.g
.	.	4.f}
8.F	8.g}	.
8.G	{8.g	{8.g
4.c	8.b-}	8.cc
.	[8.b-	[8.b-
4.c	4.b-_	4.b-_
8.B-	8.b-_	8.b-}]
=4	=4	=4
8.B-	8.b-]	8.b-
4.B-	8.r	8.r
.	8.r	8.r
4.B-	4.r	4.r
8.E-	8.r	8.r
8.B-	4.r	4.r
4.B-	.	.
.	8.r	8.r
4.B-	4.r	4.r
8.B-	8.r	8.r
=5	=5	=5
8.B-	8.r	8.r
8.c	{8.cc	8.cc
8.e-	8.ee-}	8.ee-
4.c	[4.ee-	4.cc
8.e-	8.ee-]	{8.ee-
8.c	{16cc	4.cc
.	8ee-	.
4.c	8.c	.
.	[8.b-	[8.b-
4.c	4.b-_	4.b-_
8.B-	8.b-_	8.b-_
=6	=6	=6
8.B-	8.b-}]	8.b-}]
8.c	{8.cc	8.cc
8.e-	8.ee-	{8.ee-
4.c	8.cc	8.cc
.	4.b-}	4.b-}
8.B-	.	.
8.B-	{16b-	{8.b-
.	16ee-	.
.	16cc	.
4.B-	[8.b-	8.cc
.	8b-]	8.b-
.	16cc	.
4.G	16b-	8.g
.	[8g	.
.	8.g]	4.f}
8.F	8.f}	.
=7	=7	=7
8.B-	{4.cc	8.b-
8.B-	.	{8.cc
8c	8.b-	8.b-
16B-	.	.
4.G	4.b-	8.g
.	.	4.f}
8.F	8.g}	.
8.G	{8.g	{8.b-
4.c	8.b-}	8.cc
.	[8.b-	[8.b-
4.c	4.b-_	4.b-_
8.B-	8.b-_	8.b-}]
=8	=8	=8
8.B-	8.b-]	8.b-
4.B-	8.r	8.r
.	8.r	8.r
4.B-	4.r	4.r
8.E-	8.r	8.r
8.B-	4.r	4.r
4.B-	.	.
.	8.r	8.r
4.B-	4.r	4.r
8.B-	8.r	8.r
=9	=9	=9
8.B-	8.r	8.r
8.c	{8.cc	8.cc
8.e-	8.ee-}	{8.ee-
4.c	[4.ee-	4.cc
8.e-	8.ee-]	8.ee-
8.c	{16cc	4.cc
.	8ee-	.
4.c	8.cc	.
.	[8.b-	[8.b-
4.c	4.b-_	4.b-_
8.B-	8.b-_	8.b-_
=10	=10	=10
8.B-	8.b-}]	8.b-}]
8.c	{8.cc	8.cc
8.e-	8.ee-	{8.ee-
4.c	8.cc	8.cc
.	4.b-}	4.b-}
8.B-	.	.
8.B-	{16b-	8.b-
.	16ee-	.
.	16cc	.
4.B-	[8.b-	{8.cc
.	8b-]	8.b-
.	16cc	.
4.G	16b-	8.g
.	[8g	.
.	8.g]	4.f}
8.F	8.f}	.
=11	=11	=11
8.B-	{8.g	{8.g
8.G	[4.b-	[4.b-
8.B-	.	.
4.B-	8b-]	4.b-]
.	16cc	.
.	8b-	.
.	[16g	.
8.G	8.g}]	8g
.	.	16f}
8.F	{8f	{8.f
.	16g	.
8.F	8f	4.g}
.	[16g	.
8.G	8.g]	.
4.F	4.f	{4.f
8.E-	8.e-}	8.e-}
=12	=12	=12
8.F	{8.e-	{8.e-
4.F	8.f}	[4.f
.	[8.f	.
8.G	4.f_	4.f_
8.B-	.	.
8.F	8.f]	8.f}]
8.G	{32g	{8.g
.	32b-	.
.	16cc	.
.	32b-	.
.	32g	.
8.F	8.f	8.f
8.E-	8e-	8e-
.	16c	16c
8.E-	8.e-	8.e-
8.C	8.c	8.c
8.BB-	[8.B-	[8.B-
=13	=13	=13
8.BB-	8.B-}]	8.B-}]
8.B-	{8.b-	8.b-
8.c	8.cc	{8cc
.	.	[16b-
4.c	[4.b-	4.b-_
8.B-	8.b-}]	8.b-}]
8.B-	{16b-	8.b-
.	16ee-	.
.	16cc	.
8.B-	[8.b-	{8.cc
8c	8b-]	8.b-}
16B-	16cc	.
8.G	16b-	{8.g
.	[8g	.
8.E-	8.g]	4.f}
8.E-	8.f}	.
=14	=14	=14
8.F	{8.cc	8.cc
8.B-	[8.b-	4.b-
8c	16b-]	.
.	16cc	.
16B-	16b-	.
8.G	4.g	{8.g
8.B-	.	8.f}
8.F	8.f}	8.f
8.G	{48g	{8.f
.	48cc	.
.	48b-	.
.	8g	.
8.F	8.f	16g
.	.	8f
8.E-	8e-	8e-
.	16c	16c
8.E-	8.e-	8.e-
8.C	8.c	8.c}
8.BB-	[8.B-	[8.B-
=15	=15	=15
8.BB-	8.B-}]	8.B-]
4.B-	8.r	8.r
.	8.r	8.r
4.B-	4.r	4.r
8.c	8.r	8.r
8.B-	4.r	4.r
4.G	.	.
.	8.r	8.r
4.F	4.r	4.r
8.G	8.r	8.r
=16	=16	=16
8.B-	4.r	4.r
4.B-	.	.
.	8.r	8.r
4.c	4.r	4.r
8.B-	8.r	8.r
8.B-	4.r	4.r
4.B-	.	.
.	8.r	8.r
4.B-	4.r	4.r
8.B-	8.r	8.r
=17	=17	=17
8.B-	8.r	8.r
4.B-	{8.cc	8.b-
.	8.b-}	{8cc
.	.	[16b-
4.F	{16cc	4.b-_
.	8ee-	.
.	8.cc	.
8.B-	[8.b-	8.b-_
8.B-	4.b-_	4.b-_
4.B-	.	.
.	8b-]	8.b-_
.	16ff'}	.
4.B-	4.r	4.b-_
8.B-	8.r	8.b-_
=18	=18	=18
8.B-	8.r	8.b-}]
8.B-	{8.g	8.b-
8.c	8cc	{8cc
.	[16b-	[16b-
4.c	4.b-_	4.b-_
8.B-	8.b-}]	8.b-}]
8.B-	{16b-	8.b-
.	16ee-	.
.	16cc	.
4.B-	[8.b-	{8.cc
.	8b-]	8.b-
.	16cc	.
4.G	16b-	8.g
.	[8g	.
.	8.g]	4.f}
8.F	8.f}	.
=19	=19	=19
8.B-	{8.g	8.g
8.G	[4.b-	[{4.b-
8.B-	.	.
4.B-	8b-]	4.b-]
.	16cc	.
.	8b-	.
.	[16g	.
8.G	8.g}]	8g
.	.	16f}
8.F	{8f	8.f
.	16g	.
8.F	8f	{8.f
.	[16g	.
8.G	8.g]	8.g}
4.F	4.f	{4.f
8.E-	8.e-}	8.e-}
=20	=20	=20
8.F	{8.e-	{8.e-
4.F	8.f}	[4.f
.	[8.f	.
8.G	4.f_	4.f_
8.B-	.	.
8.F	8.f]	8.f}]
8.G	{32g	{8.g
.	32b-	.
.	16cc	.
.	32b-	.
.	32g	.
8.F	8.f	8.f
8.E-	8e-	8e-
.	16c	16c
8.E-	8.e-	8.e-
8.C	8.c	8.c
8.BB-	[8.B-	[8.B-
=21	=21	=21
8.BB-	8.B-}]	8.B-}]
8.B-	{8.b-	8.b-
8.c	8.cc	{8cc
.	.	16b-}
4.c	[4.b-	[4.b-
8.B-	8.b-}]	8.b-]
8.B-	{16b-	8.b-
.	16ee-	.
.	16cc	.
8.B-	[8.b-	{8.cc
8c	8b-]	8.b-
16B-	16cc	.
8.G	16b-	8.g
.	[8g	.
8.F	8.g]	4.f}
8.E-	8.f}	.
=22	=22	=22
8.F	{8.cc	8.cc
8.B-	[8.b-	4.b-
8c	16b-]	.
.	16cc	.
16B-	16b-	.
8.G	4.g	{8.g
8.B-	.	8.f}
8.F	8.f}	8.f
8.G	{48g	{8.f
.	48cc	.
.	48b-	.
.	8g	.
8.F	8.f	16g
.	.	8f
8.E-	8e-	8e-
.	16c	16c
8.E-	8.e-	8.e-
8.C	8.c	8.c}
8.BB-	[8.B-	[8.B-
=23	=23	=23
8.BB-	8.B-}]	8.B-]
4.B-	8.r	8.r
.	8.r	8.r
4.B-	4.r	4.r
8.c	8.r	8.r
8.B-	4.r	4.r
4.G	.	.
.	8.r	8.r
4.F	4.r	4.r
8.G	8.r	8.r
=24	=24	=24
8.B-	4.r	4.r
4.B-	.	.
.	8.r	8.r
4.c	4.r	4.r
8.B-	8.r	8.r
8.B-	4.r	4.r
4.B-	.	.
.	8.r	8.r
4.B-	4.r	4.r
8.B-	8.r	8.r
=25	=25	=25
8.B-	8.r	8.r
8.E-	{8.e-	8.e-
8.G	8.g}	[{8.g
4.G	[4.g	8.g]
.	.	4.f}
8.B-	8.g]	.
8.B-	{32cc	8.g
.	32b-	.
.	[8g	.
4.G	8.g]	4.f
.	[8.f	.
4.F	4.f_	[4.f
8.B-	8.f}]	8.f]
=26	=26	=26
8.B-	{8.g	{8.g
8.G	[4.b-	4.b-}
8.B-	.	.
4.B-	8b-]	{4.b-
.	16cc	.
.	8b-	.
.	[16g	.
8.G	8.g}]	8g
.	.	16f}
8.F	{8f	8.f
.	16g	.
8.F	8f	{8.f
.	[16g	.
8.G	8.g]	8.g
4.F	4.g	4.f
8.E-	8.e-}	8.e-}
=27	=27	=27
8.F	{8.e-	{8.e-
4.F	8.f}	[4.f
.	[8.f	.
8.G	4.f_	4.f_
8.B-	.	.
8.F	8.f]	8.f}]
8.G	{32g	{8.g
.	32b-	.
.	16cc	.
.	32b-	.
.	32g	.
8.F	8.f	8.f
8.E-	8e-	8e-
.	16c	16c
8.E-	8.e-	8.e-
8.C	8.c	8.c
8.BB-	[8.B-	[8.B-
=28	=28	=28
8.BB-	8.B-}]	8.B-}]
4.B-	8.r	8.r
.	8.r	8.r
4.B-	4.r	4.r
8.E-	8.r	8.r
8.B-	4.r	4.r
4.B-	.	.
.	8.r	8.r
4.B-	4.r	4.r
8.G	8.r	8.r
=29	=29	=29
8.F	8.r	8.r
8.F	{8.f	8.f
8.G	8g	{8.g
.	16f}	.
4.F	{4.f	4.f
8.E-	8.e-}	8.e-}
8.F	{8.e-	8.e-
4.F	8.f}	4.f
.	[8.f	.
8.G	4.f_	4.f
8.B-	.	.
8.F	8.f]	{8.f
=30	=30	=30
8.G	{32g	8.g
.	32b-	.
.	16cc	.
.	32b-	.
.	32g	.
8.F	8.f	8.f
8.E-	8e-	8e-
.	16c	16c
8.E-	8.e-	8.e-
8.C	8.c	8.c
8.BB-	[8.B-	[8.B-
8.BB-	8.B-}]	8.B-}]
4.B-	8.r	8.r
.	8.r	8.r
4.B-	4.r	4.r
8.B-	8.r	8.r
=31	=31	=31
8.B-	8.r	8.r
8.G	4.g	8.g
8.G	.	{8.g
4.B-	[4.g	4.b-
8.G	8.g]	8g
.	.	16f}
8.F	{8f	8.f
.	16g	.
8.F	8f	{8.f
.	16g	.
8.G	8.g	8.g
4.F	4.f	4.f
8.E-	8.e-}	8.e-}
=32	=32	=32
8.F	{8.e-	[{4.f
4.F	8.f}	.
.	[8.f	8.f_
4.G	4.f]	8.f]
.	.	8.g
8.B-	[{8.f	8.b-}
8.B-	4.f_	[4.b-
4.B-	.	.
.	8f]	8.b-]
.	16a-'}	.
4.B-	4.r	[4.b-
8.B-	8.r	8.b-_
=33	=33	=33
8.B-	8.r	8.b-]
8.B-	{8.b-	8.b-
8.c	8.cc	{8cc
.	.	[16b-
4.c	[4.b-	4.b-_
8.B-	8.b-}]	8.b-}]
8.B-	{16b-	8.b-
.	16ee-	.
.	16cc	.
8.B-	[8.b-	{8.cc
8c	8b-]	8.b-}
16B-	16cc	.
8.G	16b-	{8.g
.	[8g	.
8.F	8.g]	8.f}
8.E-	8.f}	8.f
=34	=34	=34
8.F	{8.cc	8.cc
8.B-	[8.b-	4.b-
8c	16b-]	.
.	16cc	.
16B-	16b-	.
8.G	4.g	{8.g
8.B-	.	8.f}
8.F	8.f}	8.f
8.G	{48g	{8.f
.	48cc	.
.	48b-	.
.	8g	.
8.F	8.f	16g
.	.	8f
8.E-	8e-	8e-
.	16c	16c
8.E-	8.e-	8.e-
8.C	8.c	8.c}
8.BB-	[8.B-	[8.B-
=35	=35	=35
8.BB-	4.B-_	8.B-]
4.B-	.	8.r
.	8.B-}]	8.r
4.C	{16c	4.r
.	[8e-	.
.	4.e-]	.
8.E-	.	8.r
8.F	8f	8.r
.	16g	.
4.G	8f	8.f
.	[16g	.
.	8.g]	{8.g
4.F	4.f	4.f
8.E-	8.e-}	8.e-}
=36	=36	=36
8.F	{8.e-	8.f
4.F	8.f}	[{4.f
.	[8.f	.
8.G	8.f]	4.f]
8.B-	{8.f	.
16c	8.g}	8.g}
8B-	.	.
8.G	{48g	8.b-
.	48cc	.
.	48b-	.
.	[8g	.
8.F	8.g]	{8.g
8.E-	8.f	8.f
4.E-	4.e-}	[4.e-
8.E-	[8.e-	8.e-_
=37	=37	=37
8.E-	8.e-]	8.e-}]
8.C	{8.c	8.c
8.E-	[8.e-	[{8.e-
4.E-	8.e-]	4.e-]
.	4.c	.
8.C	.	8.c}
8.BB-	8.B-}	[{4.B-
4.BB-	{4.B-	.
.	.	8.B-_
4.BB-	4.B-	4.B-]
8.G	8.g}	8.g}
=38	=38	=38
8.F	{8f	8.f
.	16g	.
4.F	8f	[{4.f
.	[16g	.
.	8.g]	.
8.G	4.f}	4.f]
8.B-	.	.
8.F	{16f	8.g}
.	8g}	.
8.G	{48g	{8.f
.	48cc	.
.	48a	.
.	8g	.
8.F	8.f	16g
.	.	8f
8.E-	8e-	8e-
.	16c	16c
8.E-	8.e-	8.e-
8.C	8.c	8.c}
8.BB-	[8.B-	8.B-
=39	=39	=39
8.BB-	8.B-}]	8.B-
4.B-	8.r	8.r
.	8.r	8.r
4.B-	4.r	4.r
8.c	8.r	8.r
8.B-	4.r	4.r
4.G	.	.
.	8.r	8.r
4.F	4.r	4.r
8.G	8.r	8.r
=40	=40	=40
8.B-	4.r	4.r
4.B-	.	.
.	8.r	8.r
4.c	4.r	4.r
8.B-	8.r	8.r
8.B-	4.r	4.r
4.B-	.	.
.	8.r	8.r
4.B-	4.r	4.r
8.B-	8.r	8.r
=41	=41	=41
8.B-	8.r	8.r
====	====	====
*-	*-	*-
